X:1     %Music
T:Linden Lea
B:Singing Together, Summer 1961, BBC Publications
F:http://www.folkinfo.org/songs
M:3/4     %Meter
L:1/8     %
K:G
D G A |B2 d2 ed |c2 B2 AG |EG G2 A2 | G3
w:With-in the wood-lands, flow-'ry glad-ed, By the oak trees' mos-sy moot;
D GA |B2 d2 ed |c2 B2 EF |GA B2 A2 | A3
w:The shin-ing grass blades, tim-ber shad-ed, Now do quiv-er un-der foot;
A dB |e3 d BG |A3 A dB |e3 d cB | A3
w:And birds do whis-tle o-ver-head, And wa-ter's bub-bling in its bed;
D GA |B3 d ed |cB A2 G2 |EG G2 A2 | G3  |]
w:And there for me, The ap-ple tree Do lean down low in Lin-den Lea. 